packages/kaspersky-hexa-ui-icons/src/iconsSVGs/64x42/FlagMy.svg

<svg width="64" height="42" viewBox="0 0 64 42" fill="none" xmlns="http://www.w3.org/2000/svg">
<g clip-path="url(#clip0_37941_2298)">
<rect width="64" height="42" rx="5" fill="white"/>
<path d="M0 0H64V42H0V0Z" fill="white"/>
<rect x="0.5" y="0.5" width="63" height="41" rx="4.5" stroke="#F5F5F5"/>
<path fill-rule="evenodd" clip-rule="evenodd" d="M64 3H35.9139V0H64V3ZM35.9139 6H64V9H35.9139V6ZM64 15H35.9139V12H64V15ZM35.9139 18H64V21H35.9139V18Z" fill="#CC0000"/>
<path d="M0 0H35.9139V25.5H0V0Z" fill="#000066"/>
<path fill-rule="evenodd" clip-rule="evenodd" d="M64 27.0001H0V24.0001H64V27.0001ZM0 30.0001H64V33.0001H0V30.0001ZM64 39.0001H0V36.0001H64V39.0001Z" fill="#CC0000"/>
<path d="M24.2499 4.5L24.9187 9.075L27.5062 5.24375L26.1187 9.65625L30.1124 7.325L26.9499 10.7L31.5624 10.3313L27.2499 12L31.5624 13.6688L26.9499 13.3L30.1124 16.675L26.1187 14.3438L27.5062 18.7563L24.9187 14.925L24.2499 19.5L23.5812 14.925L20.9937 18.7563L22.3812 14.3438L18.3874 16.675L21.5499 13.3L16.9374 13.6688L21.2499 12L16.9374 10.3313L21.5499 10.7L18.3874 7.325L22.3812 9.65625L20.9937 5.24375L23.5812 9.075L24.2499 4.5ZM20.4999 4.6875C19.282 4.14709 17.9483 3.91946 16.6201 4.02527C15.2918 4.13108 14.011 4.56699 12.894 5.29341C11.7769 6.01984 10.859 7.01377 10.2236 8.18497C9.58818 9.35617 9.25536 10.6675 9.25536 12C9.25536 13.3325 9.58818 14.6438 10.2236 15.815C10.859 16.9862 11.7769 17.9802 12.894 18.7066C14.011 19.433 15.2918 19.8689 16.6201 19.9747C17.9483 20.0806 19.282 19.8529 20.4999 19.3125C19.1551 20.2775 17.5701 20.8528 15.9194 20.9753C14.2687 21.0978 12.6161 20.7627 11.1435 20.0069C9.67094 19.251 8.43532 18.1037 7.57255 16.6911C6.70978 15.2785 6.2533 13.6553 6.2533 12C6.2533 10.3448 6.70978 8.72156 7.57255 7.30894C8.43532 5.89632 9.67094 4.74899 11.1435 3.99314C12.6161 3.23728 14.2687 2.90218 15.9194 3.02469C17.5701 3.14719 19.1551 3.72255 20.4999 4.6875Z" fill="#FFCC00"/>
</g>
<defs>
<clipPath id="clip0_37941_2298">
<rect width="64" height="42" rx="5" fill="white"/>
</clipPath>
</defs>
</svg>

<svg xmlns="http://www.w3.org/2000/svg" width="64" height="42" fill="none" viewBox="0 0 64 42"><g clip-path="url(#a)"><rect width="64" height="42" fill="#fff" rx="5"/><path fill="#fff" d="M0 0h64v42H0z"/><rect width="63" height="41" x="1" y="1" stroke="#f5f5f5" rx="5"/><path fill="#c00" fill-rule="evenodd" d="M64 3H35.9139V0H64zM35.9139 6H64v3H35.9139zM64 15H35.9139v-3H64zm-28.0861 3H64v3H35.9139z" clip-rule="evenodd"/><path fill="#006" d="M0 0h35.9139v25.5H0z"/><path fill="#c00" fill-rule="evenodd" d="M64 27.0001H0v-3h64zm-64 3h64v3H0zm64 9H0v-3h64z" clip-rule="evenodd"/><path fill="#fc0" d="m24.2499 4.5.6688 4.575 2.5875-3.8312-1.3875 4.4125 3.9937-2.3313-3.1625 3.375 4.6125-.3687L27.2499 12l4.3125 1.6688-4.6125-.3688 3.1625 3.375-3.9937-2.3312 1.3875 4.4125-2.5875-3.8313-.6688 4.575-.6687-4.575-2.5875 3.8313 1.3875-4.4125-3.9938 2.3312 3.1625-3.375-4.6125.3688L21.2499 12l-4.3125-1.6687 4.6125.3687-3.1625-3.375 3.9938 2.3313-1.3875-4.4125 2.5875 3.8312zm-3.75.1875A7.9998 7.9998 0 0 0 9.2554 12a8 8 0 0 0 11.2445 7.3125 9.001 9.001 0 0 1-9.3564.6944A9.001 9.001 0 0 1 6.2533 12a9 9 0 0 1 14.2466-7.3125"/></g><defs><clipPath id="a"><rect width="64" height="42" fill="#fff" rx="5"/></clipPath></defs></svg>
